static/img/showcase/allkinds_logo.svg

<svg width="112" height="112" viewBox="0 0 112 112" fill="none" xmlns="http://www.w3.org/2000/svg">
<circle cx="56" cy="56" r="56" fill="black"/>
<path d="M88 70.403V41.597C87.9987 40.3342 87.6695 39.0938 87.0455 38.0005C86.4214 36.9071 85.5244 35.9992 84.4444 35.3678L59.5556 20.9648C58.4745 20.3328 57.2483 20 56 20C54.7517 20 53.5255 20.3328 52.4444 20.9648L27.5556 35.3678C26.4756 35.9992 25.5786 36.9071 24.9545 38.0005C24.3305 39.0938 24.0013 40.3342 24 41.597V70.403C24.0013 71.6658 24.3305 72.9061 24.9545 73.9995C25.5786 75.0929 26.4756 76.0008 27.5556 76.6322L52.4444 91.0352C53.5255 91.6672 54.7517 92 56 92C57.2483 92 58.4745 91.6672 59.5556 91.0352L84.4444 76.6322C85.5244 76.0008 86.4214 75.0929 87.0455 73.9995C87.6695 72.9061 87.9987 71.6658 88 70.403Z" stroke="white" stroke-width="10" stroke-linecap="round" stroke-linejoin="round"/>
</svg>

<svg xmlns="http://www.w3.org/2000/svg" width="112" height="112" fill="none" viewBox="0 0 112 112"><circle cx="56" cy="56" r="56" fill="#000"/><path stroke="#fff" stroke-linecap="round" stroke-linejoin="round" stroke-width="10" d="M88 70.403V41.597a7.273 7.273 0 0 0-.954-3.596 7.156 7.156 0 0 0-2.602-2.633L59.556 20.965A7.043 7.043 0 0 0 56 20a7.043 7.043 0 0 0-3.556.965L27.556 35.368A7.156 7.156 0 0 0 24.954 38 7.273 7.273 0 0 0 24 41.597v28.806a7.273 7.273 0 0 0 .954 3.596 7.156 7.156 0 0 0 2.602 2.633l24.888 14.403A7.043 7.043 0 0 0 56 92a7.043 7.043 0 0 0 3.556-.965l24.888-14.403A7.156 7.156 0 0 0 87.046 74 7.273 7.273 0 0 0 88 70.403Z"/></svg>
